public/assets/wave1.svg

<svg viewBox="0 0 1440 964" fill="none" xmlns="http://www.w3.org/2000/svg">
<g opacity="0.5" filter="url(#filter0_d)">
<path d="M541.317 -29.7583L-69.8391 -12.8198L-95.1832 796.343C-63.5754 830.801 18.6805 906.013 124.317 905.741C254.517 905.407 373.327 862.225 450.281 796.343C527.235 730.46 675.777 691.702 804.758 785.019C913.15 863.441 986.733 869.965 1059.38 832.178C1124.56 798.273 1138.01 739.725 1238.44 770.327C1315.86 793.917 1333.94 773.777 1364.79 737.621C1404.09 691.554 1426.16 702.152 1432.72 702.194C1419 695.004 1408.46 695.505 1386.62 702.42C1352.1 713.346 1327.12 711.131 1302.99 695.489C1278.87 679.847 1250.24 636.521 1196.67 617.768C1142.72 598.883 1126.12 612.147 1075.43 601.811C1007.21 587.901 974.678 531.011 947.184 362.049C909.645 131.354 779.372 75.5053 651.489 62.8795C558.359 53.6847 551.755 7.82599 541.317 -29.7583Z" fill="#001B33"/>
</g>
<defs>
<filter id="filter0_d" x="-178" y="-145" width="1635.31" height="1108.57" filterUnits="userSpaceOnUse" color-interpolation-filters="sRGB">
<feFlood flood-opacity="0" result="BackgroundImageFix"/>
<feColorMatrix in="SourceAlpha" type="matrix" values="0 0 0 0 0 0 0 0 0 0 0 0 0 0 0 0 0 0 127 0"/>
<feOffset dy="4"/>
<feGaussianBlur stdDeviation="7.5"/>
<feColorMatrix type="matrix" values="0 0 0 0 0 0 0 0 0 0.360784 0 0 0 0 0.701961 0 0 0 0.3 0"/>
<feBlend mode="normal" in2="BackgroundImageFix" result="effect1_dropShadow"/>
<feBlend mode="normal" in="SourceGraphic" in2="effect1_dropShadow" result="shape"/>
</filter>
</defs>
</svg>

<svg viewBox="0 0 1440 964" fill="none" xmlns="http://www.w3.org/2000/svg"><g opacity=".5" filter="url(#filter0_d)"><path d="M541.32-29.76L-69.84-12.82l-25.34 809.16c31.6 34.46 113.86 109.67 219.5 109.4 130.2-.33 249-43.51 325.96-109.4 76.96-65.88 225.5-104.64 354.48-11.32 108.39 78.42 181.97 84.95 254.62 47.16 65.18-33.9 78.63-92.45 179.06-61.85 77.42 23.59 95.5 3.45 126.35-32.7 39.3-46.08 61.37-35.48 67.93-35.44-13.72-7.19-24.26-6.69-46.1.23-34.52 10.93-59.5 8.71-83.63-6.93-24.12-15.64-52.75-58.97-106.32-77.72-53.95-18.89-70.55-5.62-121.24-15.96-68.22-13.9-100.75-70.8-128.25-239.76-37.53-230.7-167.8-286.54-295.7-299.17-93.12-9.2-99.73-55.05-110.16-92.64z" fill="#001B33"/></g><defs><filter id="filter0_d" x="-178" y="-145" width="1635.31" height="1108.57" filterUnits="userSpaceOnUse" color-interpolation-filters="sRGB"><feFlood flood-opacity="0" result="BackgroundImageFix"/><feColorMatrix in="SourceAlpha" values="0 0 0 0 0 0 0 0 0 0 0 0 0 0 0 0 0 0 127 0"/><feOffset dy="4"/><feGaussianBlur stdDeviation="7.5"/><feColorMatrix values="0 0 0 0 0 0 0 0 0 0.360784 0 0 0 0 0.701961 0 0 0 0.3 0"/><feBlend in2="BackgroundImageFix" result="effect1_dropShadow"/><feBlend in="SourceGraphic" in2="effect1_dropShadow" result="shape"/></filter></defs></svg>
